img/svg/car-washes.svg

<svg width="49" height="49" viewBox="0 0 49 49" fill="none" xmlns="http://www.w3.org/2000/svg">
<path d="M13.6201 9.8H34.8535C35.0271 9.79986 35.1961 9.7444 35.3361 9.64167C35.476 9.53894 35.5796 9.39429 35.6317 9.2287C35.6839 9.06312 35.6819 8.88522 35.6261 8.72082C35.5703 8.55643 35.4636 8.4141 35.3214 8.31448L27.5035 2.84118V0H25.8701V2.45H22.6035V0H20.9701V2.84118L13.1522 8.31285C13.0093 8.41222 12.9019 8.55464 12.8456 8.71935C12.7893 8.88406 12.7872 9.06243 12.8394 9.22846C12.8917 9.39449 12.9956 9.53948 13.136 9.64229C13.2765 9.7451 13.4461 9.80036 13.6201 9.8ZM22.044 4.08333H26.4295L32.263 8.16667H16.2106L22.044 4.08333Z" fill="white"/>
<path d="M10.3538 31.85H8.72051C8.07073 31.85 7.44756 32.1081 6.9881 32.5676C6.52863 33.027 6.27051 33.6502 6.27051 34.3V35.1166C6.27051 35.7664 6.52863 36.3896 6.9881 36.8491C7.44756 37.3085 8.07073 37.5666 8.72051 37.5666H10.3538C11.0036 37.5666 11.6268 37.3085 12.0863 36.8491C12.5457 36.3896 12.8038 35.7664 12.8038 35.1166V34.3C12.8038 33.6502 12.5457 33.027 12.0863 32.5676C11.6268 32.1081 11.0036 31.85 10.3538 31.85ZM11.1705 35.1166C11.1705 35.3332 11.0845 35.541 10.9313 35.6941C10.7782 35.8473 10.5704 35.9333 10.3538 35.9333H8.72051C8.50391 35.9333 8.29619 35.8473 8.14304 35.6941C7.98988 35.541 7.90384 35.3332 7.90384 35.1166V34.3C7.90384 34.0834 7.98988 33.8757 8.14304 33.7225C8.29619 33.5693 8.50391 33.4833 8.72051 33.4833H10.3538C10.5704 33.4833 10.7782 33.5693 10.9313 33.7225C11.0845 33.8757 11.1705 34.0834 11.1705 34.3V35.1166Z" fill="white"/>
<path d="M39.7533 31.85H38.1199C37.4701 31.85 36.847 32.1081 36.3875 32.5676C35.928 33.027 35.6699 33.6502 35.6699 34.3V35.1166C35.6699 35.7664 35.928 36.3896 36.3875 36.8491C36.847 37.3085 37.4701 37.5666 38.1199 37.5666H39.7533C40.403 37.5666 41.0262 37.3085 41.4857 36.8491C41.9451 36.3896 42.2033 35.7664 42.2033 35.1166V34.3C42.2033 33.6502 41.9451 33.027 41.4857 32.5676C41.0262 32.1081 40.403 31.85 39.7533 31.85ZM40.5699 35.1166C40.5699 35.3332 40.4839 35.541 40.3307 35.6941C40.1776 35.8473 39.9698 35.9333 39.7533 35.9333H38.1199C37.9033 35.9333 37.6956 35.8473 37.5425 35.6941C37.3893 35.541 37.3033 35.3332 37.3033 35.1166V34.3C37.3033 34.0834 37.3893 33.8757 37.5425 33.7225C37.6956 33.5693 37.9033 33.4833 38.1199 33.4833H39.7533C39.9698 33.4833 40.1776 33.5693 40.3307 33.7225C40.4839 33.8757 40.5699 34.0834 40.5699 34.3V35.1166Z" fill="white"/>
<path d="M31.5865 31.85H16.8865C16.2367 31.85 15.6136 32.1081 15.1541 32.5676C14.6946 33.027 14.4365 33.6502 14.4365 34.3V35.1166C14.4365 35.7664 14.6946 36.3896 15.1541 36.8491C15.6136 37.3085 16.2367 37.5666 16.8865 37.5666H31.5865C32.2363 37.5666 32.8595 37.3085 33.3189 36.8491C33.7784 36.3896 34.0365 35.7664 34.0365 35.1166V34.3C34.0365 33.6502 33.7784 33.027 33.3189 32.5676C32.8595 32.1081 32.2363 31.85 31.5865 31.85ZM32.4032 35.1166C32.4032 35.3332 32.3172 35.541 32.164 35.6941C32.0108 35.8473 31.8031 35.9333 31.5865 35.9333H16.8865C16.6699 35.9333 16.4622 35.8473 16.3091 35.6941C16.1559 35.541 16.0699 35.3332 16.0699 35.1166V34.3C16.0699 34.0834 16.1559 33.8757 16.3091 33.7225C16.4622 33.5693 16.6699 33.4833 16.8865 33.4833H31.5865C31.8031 33.4833 32.0108 33.5693 32.164 33.7225C32.3172 33.8757 32.4032 34.0834 32.4032 34.3V35.1166Z" fill="white"/>
<path d="M38.9373 49H43.8373C44.2704 49 44.6859 48.8279 44.9922 48.5216C45.2985 48.2153 45.4706 47.7998 45.4706 47.3666V33.2448C45.4732 32.428 45.2296 31.6293 44.7716 30.9529C44.3136 30.2766 43.6624 29.7539 42.903 29.4531L41.0924 28.7287L35.6763 21.2815C35.2967 20.7614 34.7999 20.3381 34.226 20.0459C33.6522 19.7537 33.0176 19.601 32.3737 19.6H16.1008C15.4569 19.601 14.8223 19.7537 14.2485 20.0459C13.6747 20.3381 13.1778 20.7614 12.7982 21.2815L7.38208 28.7287L5.57153 29.4531C4.81209 29.7539 4.16092 30.2766 3.70292 30.9529C3.24491 31.6293 3.00133 32.428 3.00393 33.2448V47.3666C3.00393 47.7998 3.17601 48.2153 3.48232 48.5216C3.78863 48.8279 4.20407 49 4.63726 49H9.53726C9.97045 49 10.3859 48.8279 10.6922 48.5216C10.9985 48.2153 11.1706 47.7998 11.1706 47.3666V44.1H37.3039V47.3666C37.3039 47.7998 37.476 48.2153 37.7823 48.5216C38.0886 48.8279 38.5041 49 38.9373 49ZM43.8373 47.3666H38.9373V44.1H43.0206C43.175 44.099 43.3289 44.0835 43.4804 44.0534C43.5294 44.0444 43.5751 44.0281 43.6233 44.0159C43.6943 43.9979 43.7687 43.9848 43.8373 43.9603V47.3666ZM14.1188 22.2427C14.3465 21.9305 14.6447 21.6764 14.9891 21.501C15.3335 21.3256 15.7143 21.2339 16.1008 21.2333H32.3737C32.7602 21.2339 33.1411 21.3256 33.4854 21.501C33.8298 21.6764 34.128 21.9305 34.3558 22.2427L38.9667 28.5833H9.50786L14.1188 22.2427ZM4.63726 33.2448C4.63556 32.7548 4.78163 32.2757 5.05639 31.8699C5.33115 31.4642 5.72185 31.1507 6.17749 30.9704L8.06073 30.2166H40.4138L42.297 30.9704C42.7527 31.1507 43.1434 31.4642 43.4181 31.8699C43.6929 32.2757 43.839 32.7548 43.8373 33.2448V39.2H4.63726V33.2448ZM9.53726 47.3666H4.63726V43.9603C4.70586 43.9848 4.78018 43.9979 4.85204 44.0159C4.89941 44.0281 4.94514 44.0444 4.99414 44.0534C5.14559 44.0835 5.29954 44.099 5.45393 44.1H9.53726V47.3666ZM10.3539 42.4666H5.45393C5.23733 42.4666 5.02961 42.3806 4.87646 42.2274C4.7233 42.0743 4.63726 41.8666 4.63726 41.65V40.8333H43.8373V41.65C43.8373 41.8666 43.7512 42.0743 43.5981 42.2274C43.4449 42.3806 43.2372 42.4666 43.0206 42.4666H10.3539Z" fill="white"/>
<path d="M25.0533 11.4333H23.4199V13.8833H25.0533V11.4333Z" fill="white"/>
<path d="M25.0533 15.5167H23.4199V17.9667H25.0533V15.5167Z" fill="white"/>
<path d="M15.4392 10.9158L13.8867 12.8111L15.1503 13.8461L16.7028 11.9508L15.4392 10.9158Z" fill="white"/>
<path d="M12.8507 14.0754L11.2979 15.9704L12.5612 17.0056L14.1141 15.1106L12.8507 14.0754Z" fill="white"/>
<path d="M10.2638 17.2343L8.71094 19.1293L9.97428 20.1646L11.5272 18.2696L10.2638 17.2343Z" fill="white"/>
<path d="M7.67644 20.3925L6.12305 22.2881L7.38639 23.3234L8.93978 21.4278L7.67644 20.3925Z" fill="white"/>
<path d="M19.3693 11.2046L18.6826 13.5564L20.2505 14.0142L20.9371 11.6624L19.3693 11.2046Z" fill="white"/>
<path d="M18.2249 15.1237L17.5371 17.4752L19.1048 17.9337L19.7925 15.5822L18.2249 15.1237Z" fill="white"/>
<path d="M10.8039 10.6658L9.00293 12.3268L10.1097 13.5269L11.9107 11.8659L10.8039 10.6658Z" fill="white"/>
<path d="M7.80296 13.4339L6.00195 15.0948L7.10873 16.2949L8.90973 14.6339L7.80296 13.4339Z" fill="white"/>
<path d="M4.801 16.2033L3 17.8643L4.10677 19.0644L5.90778 17.4034L4.801 16.2033Z" fill="white"/>
<path d="M1.801 18.9716L0 20.6326L1.10677 21.8327L2.90778 20.1717L1.801 18.9716Z" fill="white"/>
<path d="M33.0347 11.0845L31.7715 12.1186L33.3235 14.0143L34.5867 12.9802L33.0347 11.0845Z" fill="white"/>
<path d="M35.6229 14.2431L34.3594 15.2781L35.9124 17.174L37.1759 16.1391L35.6229 14.2431Z" fill="white"/>
<path d="M38.2097 17.4021L36.9463 18.4373L38.499 20.3324L39.7624 19.2973L38.2097 17.4021Z" fill="white"/>
<path d="M40.7967 20.5605L39.5332 21.5956L41.0859 23.4908L42.3493 22.4556L40.7967 20.5605Z" fill="white"/>
<path d="M29.1022 11.3823L27.5342 11.8397L28.2202 14.1917L29.7882 13.7343L29.1022 11.3823Z" fill="white"/>
<path d="M30.2484 15.2933L28.6807 15.7516L29.3681 18.1032L30.9358 17.6448L30.2484 15.2933Z" fill="white"/>
<path d="M37.6684 10.8338L36.5615 12.0338L38.3623 13.695L39.4692 12.495L37.6684 10.8338Z" fill="white"/>
<path d="M40.6705 13.6028L39.5635 14.8026L41.3641 16.464L42.4711 15.2642L40.6705 13.6028Z" fill="white"/>
<path d="M43.6715 16.3712L42.5645 17.571L44.3651 19.2325L45.4721 18.0327L43.6715 16.3712Z" fill="white"/>
<path d="M46.6723 19.14L45.5654 20.3399L47.3662 22.0011L48.4732 20.8012L46.6723 19.14Z" fill="white"/>
</svg>

<svg width="49" height="49" viewBox="0 0 49 49" fill="none" xmlns="http://www.w3.org/2000/svg"><path d="M13.62 9.8h21.233a.817.817 0 00.468-1.486l-7.817-5.473V0H25.87v2.45h-3.267V0H20.97v2.841l-7.818 5.472A.817.817 0 0013.62 9.8zm8.424-5.717h4.386l5.833 4.084H16.211l5.833-4.084zM10.354 31.85H8.72a2.45 2.45 0 00-2.45 2.45v.817a2.45 2.45 0 002.45 2.45h1.633a2.45 2.45 0 002.45-2.45V34.3a2.45 2.45 0 00-2.45-2.45zm.817 3.267a.816.816 0 01-.817.816H8.72a.816.816 0 01-.817-.816V34.3a.817.817 0 01.817-.817h1.633a.816.816 0 01.817.817v.817zm28.582-3.267H38.12a2.45 2.45 0 00-2.45 2.45v.817a2.45 2.45 0 002.45 2.45h1.633a2.45 2.45 0 002.45-2.45V34.3a2.45 2.45 0 00-2.45-2.45zm.817 3.267a.816.816 0 01-.817.816H38.12a.816.816 0 01-.817-.816V34.3a.817.817 0 01.817-.817h1.633a.816.816 0 01.817.817v.817zm-8.983-3.267h-14.7a2.45 2.45 0 00-2.45 2.45v.817a2.45 2.45 0 002.45 2.45h14.7a2.45 2.45 0 002.45-2.45V34.3a2.45 2.45 0 00-2.45-2.45zm.816 3.267a.816.816 0 01-.816.816h-14.7a.816.816 0 01-.817-.816V34.3a.817.817 0 01.817-.817h14.7a.817.817 0 01.816.817v.817z" fill="#fff"/><path d="M38.937 49h4.9a1.633 1.633 0 001.634-1.633V33.245a4.065 4.065 0 00-2.568-3.792l-1.81-.724-5.417-7.447a4.097 4.097 0 00-3.302-1.682H16.1a4.096 4.096 0 00-3.303 1.681L7.382 28.73l-1.81.724a4.065 4.065 0 00-2.568 3.792v14.122A1.633 1.633 0 004.637 49h4.9a1.633 1.633 0 001.634-1.633V44.1h26.133v3.267A1.633 1.633 0 0038.937 49zm4.9-1.633h-4.9V44.1h4.084a2.44 2.44 0 00.46-.047c.048-.009.094-.025.142-.037.071-.018.146-.031.214-.056v3.407zM14.12 22.243a2.458 2.458 0 011.982-1.01h16.273a2.457 2.457 0 011.982 1.01l4.61 6.34H9.509l4.61-6.34zM4.637 33.245a2.437 2.437 0 011.54-2.275l1.884-.753h32.353l1.883.753a2.436 2.436 0 011.54 2.275V39.2h-39.2v-5.955zm4.9 14.122h-4.9V43.96c.069.025.143.038.215.056.047.012.093.028.142.037.152.03.306.046.46.047h4.083v3.267zm.817-4.9h-4.9a.816.816 0 01-.817-.817v-.817h39.2v.817a.817.817 0 01-.816.817H10.354zm14.699-31.034H23.42v2.45h1.633v-2.45zm0 4.084H23.42v2.45h1.633v-2.45zm-9.613-4.601l-1.553 1.895 1.263 1.035 1.553-1.895-1.264-1.035zm-2.59 3.159l-1.552 1.895 1.263 1.036 1.553-1.895-1.263-1.036zm-2.586 3.159L8.71 19.13l1.263 1.036 1.553-1.895-1.263-1.036zm-2.588 3.158l-1.553 1.896 1.263 1.035 1.554-1.895-1.264-1.036zm11.694-9.187l-.687 2.351 1.567.458.687-2.352-1.568-.457zm-1.145 3.919l-.688 2.351 1.568.459.688-2.352-1.568-.458zm-7.421-4.458l-1.801 1.66 1.107 1.2 1.8-1.66-1.106-1.2zm-3.001 2.768l-1.801 1.66 1.107 1.2 1.8-1.66-1.106-1.2zm-3.002 2.769L3 17.864l1.107 1.2 1.8-1.66-1.106-1.2zm-3 2.769L0 20.632l1.107 1.2 1.8-1.66-1.106-1.2zm31.234-7.887l-1.263 1.034 1.552 1.895 1.263-1.034-1.552-1.896zm2.588 3.158l-1.264 1.035 1.553 1.896 1.264-1.035-1.553-1.896zm2.587 3.159l-1.264 1.035 1.553 1.895 1.263-1.035-1.552-1.895zm2.587 3.158l-1.264 1.036 1.553 1.895 1.263-1.035-1.552-1.895zm-11.695-9.178l-1.568.458.686 2.352 1.568-.458-.686-2.352zm1.146 3.911l-1.567.459.687 2.351 1.568-.458-.688-2.352zm7.42-4.459l-1.106 1.2 1.8 1.661 1.107-1.2-1.8-1.661zm3.002 2.769l-1.107 1.2 1.801 1.661 1.107-1.2-1.8-1.661zm3.002 2.768l-1.107 1.2 1.8 1.662 1.107-1.2-1.8-1.662zm3 2.769l-1.107 1.2L47.366 22l1.107-1.2-1.8-1.661z" fill="#fff"/></svg>
